icons/1_Primary/Nextcloud.svg

<svg xmlns="http://www.w3.org/2000/svg" width="1024" height="1024" fill="none">
   <g clip-path="url(#a)">
      <path fill="#9ABEFF" d="M512 1024c282.77 0 512-229.23 512-512S794.77 0 512 0 0 229.23 0 512s229.23 512 512 512Z"/>
      <path fill="#fff" d="M512.46 370.87c-64.58 0-118.83 44.23-135.39 103.72-14.47-31.83-46.32-54.38-83.31-54.38a91.79 91.79 0 0 0 0 183.57c37 0 68.82-22.58 83.29-54.4 16.56 59.52 70.83 103.75 135.42 103.75 64.25 0 118.21-43.74 135.13-102.74 14.7 31.26 46.06 53.4 82.61 53.4a91.79 91.79 0 0 0 0-183.57c-36.58 0-67.94 22.16-82.64 53.4-16.89-59.01-70.86-102.77-135.11-102.75Zm0 53.86a87.279 87.279 0 0 1 48.409 14.639 87.278 87.278 0 0 1 37.272 89.346 87.269 87.269 0 0 1-118.49 64.142A87.27 87.27 0 0 1 425.22 512.8v-.8a86.847 86.847 0 0 1 25.43-61.816 86.849 86.849 0 0 1 61.81-25.444v-.01Zm-218.7 49.34a37.919 37.919 0 0 1 37.262 45.013 37.922 37.922 0 0 1-29.353 29.995 37.924 37.924 0 0 1-39.027-15.434 37.927 37.927 0 0 1-6.782-20.844v-.81a37.48 37.48 0 0 1 37.9-37.9v-.02Zm436.45 0a37.919 37.919 0 0 1 37.262 45.013 37.914 37.914 0 0 1-29.353 29.995 37.924 37.924 0 0 1-39.027-15.434 37.927 37.927 0 0 1-6.782-20.844v-.81a37.48 37.48 0 0 1 37.9-37.9v-.02Z"/>
   </g>
   <defs>
      <clipPath id="a">
         <path fill="#fff" d="M0 0h1024v1024H0z"/>
      </clipPath>
   </defs>
</svg>

<svg width="1024" height="1024" viewBox="0 0 1024 1024" fill="none" xmlns="http://www.w3.org/2000/svg">
<g clip-path="url(#clip0_2_2922)">
<path d="M512 1024C794.77 1024 1024 794.77 1024 512C1024 229.23 794.77 0 512 0C229.23 0 0 229.23 0 512C0 794.77 229.23 1024 512 1024Z" fill="#9ABEFF"/>
<path d="M512.46 370.87C447.88 370.87 393.63 415.1 377.07 474.59C362.6 442.76 330.75 420.21 293.76 420.21C269.583 420.462 246.482 430.244 229.475 447.429C212.468 464.615 202.928 487.817 202.928 511.995C202.928 536.173 212.468 559.375 229.475 576.561C246.482 593.746 269.583 603.528 293.76 603.78C330.76 603.78 362.58 581.2 377.05 549.38C393.61 608.9 447.88 653.13 512.47 653.13C576.72 653.13 630.68 609.39 647.6 550.39C662.3 581.65 693.66 603.79 730.21 603.79C754.387 603.538 777.488 593.756 794.495 576.571C811.502 559.385 821.042 536.183 821.042 512.005C821.042 487.827 811.502 464.625 794.495 447.439C777.488 430.254 754.387 420.472 730.21 420.22C693.63 420.22 662.27 442.38 647.57 473.62C630.68 414.61 576.71 370.85 512.46 370.87ZM512.46 424.73C529.688 424.725 546.531 429.819 560.869 439.369C575.206 448.92 586.396 462.501 593.029 478.4C599.662 494.3 601.44 511.807 598.141 528.715C594.841 545.624 586.611 561.177 574.487 573.416C562.363 585.656 546.888 594.033 530.012 597.492C513.135 600.952 495.612 599.339 479.651 592.857C463.689 586.375 450.003 575.314 440.317 561.068C430.631 546.821 425.378 530.027 425.22 512.8V512C425.166 500.527 427.385 489.158 431.75 478.548C436.115 467.938 442.538 458.297 450.65 450.184C458.762 442.071 468.4 435.645 479.009 431.277C489.618 426.91 500.988 424.688 512.46 424.74V424.73ZM293.76 474.07C301.226 474.068 308.526 476.269 314.746 480.399C320.966 484.529 325.828 490.402 328.724 497.284C331.619 504.165 332.419 511.749 331.022 519.083C329.626 526.417 326.095 533.176 320.874 538.512C315.652 543.848 308.972 547.523 301.669 549.078C294.367 550.633 286.769 549.998 279.826 547.253C272.883 544.507 266.906 539.773 262.642 533.644C258.379 527.515 256.02 520.264 255.86 512.8V511.99C255.804 506.997 256.746 502.044 258.631 497.42C260.515 492.796 263.305 488.596 266.835 485.065C270.366 481.535 274.567 478.745 279.19 476.86C283.814 474.976 288.767 474.034 293.76 474.09V474.07ZM730.21 474.07C737.676 474.068 744.976 476.269 751.196 480.399C757.416 484.529 762.278 490.402 765.174 497.284C768.069 504.165 768.869 511.749 767.472 519.083C766.076 526.417 762.546 533.176 757.324 538.512C752.102 543.848 745.422 547.523 738.119 549.078C730.817 550.633 723.219 549.998 716.276 547.253C709.333 544.507 703.356 539.773 699.092 533.644C694.829 527.515 692.47 520.264 692.31 512.8V511.99C692.254 506.997 693.196 502.044 695.081 497.42C696.965 492.796 699.755 488.596 703.285 485.065C706.816 481.535 711.017 478.745 715.64 476.86C720.264 474.976 725.217 474.034 730.21 474.09V474.07Z" fill="white"/>
</g>
<defs>
<clipPath id="clip0_2_2922">
<rect width="1024" height="1024" fill="white"/>
</clipPath>
</defs>
</svg>
